X:1
T:Title
%%score { ( 1 4 ) | ( 2 3 5 ) }
L:1/8
M:4/4
K:F
V:1 treble nm="Grand Piano"
V:4 treble 
V:2 bass 
V:3 bass 
V:5 bass 
V:1
 z4 z2[Q:1/4=100] C2 | A2 A2 cBAB | d2 c4 A2 | [FA]2 [DF]G [=B,FA]2 [B,FG]2 | [CEG]6 C2 | %5
 A2 A2 c=BAB | [Gd]2 [Gc]4 [Ad]2 | e2 dc c=BAB |[M:3/4] [Ec]6 |[M:1/4] [EGc]2 | %10
[M:4/4] [CFA]2 [FA]2 .[CEc]2 .[CEA]2 | [DFd]2 [CFc]4 [CFA]2 | A2 GF E2 D2 | [^CA]6 [A,A]2 | %14
 A2 z2 c2 z2 | [Dd]4 z2 .A2 | z4 F2 z2 |[M:3/4] [F,A,CF]6 |] %18
V:2
 z4 z2 C,2 | [F,CF]2 [F,CF]2 [G,CE]2 [G,CE]2 | [A,CF]2 [A,CF]4[K:bass] [F,CF]2 | %3
 [D,=B,]2 z E G,2 G,2 | C,6 C,2 | [F,CF]2 [F,CF]2 [F,DG]2 [F,DG]2 | [E,C]2 [E,C]4 [F,C]2 | %7
 z2 .D2 z4 |[M:3/4][K:bass] [C,C]6 |[M:1/4] [C,,C,]2 |[M:4/4] [F,,F,]2 [C,C]2 z[K:treble] B z B | %11
 [A,,A,]4 A,,C,F,G, | A,2 G,F, E,2 D,2 | [A,,E,]6 z2 | [F,,F,]4 [A,,A,]4 | %15
 [B,,B,]2 [A,,A,]2 [G,,G,]2 A,,B,, | z4 z2[K:treble] E2 |[M:3/4][K:bass] F,,6 |] %18
V:3
 x8 | x8 | x6[K:bass] x2 | z2 [D,=B,]2 z4 | x8 | x8 | x8 | [G,CG]2 [G,G]-[G,EG] [G,DF]2 [G,DF]2 | %8
[M:3/4][K:bass] x6 |[M:1/4] x2 |[M:4/4] z4 [G,,G,]2[K:treble] C,2 | x8 | x8 | x8 | x8 | x8 | %16
 z2 A,2 z2[K:treble] z F |[M:3/4][K:bass] x6 |] %18
V:4
 x8 | x8 | x8 | x8 | x8 | x8 | x8 | x8 |[M:3/4] x6 |[M:1/4] x2 |[M:4/4] x8 | x8 | x8 | x8 | %14
 [C_E]2- [C-E-G][CEF] [EF]2- [E-F-B][EFA] | F2 ^F2 [DGB]2 [B,D]-[B,DG] | [A,CFA]2 [CF]2 [B,CG]4 | %17
[M:3/4] x6 |] %18
V:5
 x8 | x8 | x6[K:bass] x2 | x8 | x8 | x8 | x8 | x8 |[M:3/4][K:bass] x6 |[M:1/4] x2 | %10
[M:4/4] x5[K:treble] x3 | x8 | x8 | x8 | x8 | x8 | C,4 [C,,C,]4[K:treble] |[M:3/4][K:bass] x6 |] %18

